storage/app/icons/phosphoricons/bold/arrow-square-in-bold.svg

<svg xmlns="http://www.w3.org/2000/svg" fill="currentColor" viewBox="0 0 256 256"><path d="M132 136v64a12 12 0 0 1-24 0v-35l-59.51 59.49a12 12 0 0 1-17-17L91 148H56a12 12 0 0 1 0-24h64a12 12 0 0 1 12 12m76-108H80a20 20 0 0 0-20 20v44a12 12 0 0 0 24 0V52h120v120h-40a12 12 0 0 0 0 24h44a20 20 0 0 0 20-20V48a20 20 0 0 0-20-20"/></svg>

<svg xmlns="http://www.w3.org/2000/svg" viewBox="0 0 256 256" fill="currentColor"><path d="M132,136v64a12,12,0,0,1-24,0V165L48.49,224.49a12,12,0,0,1-17-17L91,148H56a12,12,0,0,1,0-24h64A12,12,0,0,1,132,136ZM208,28H80A20,20,0,0,0,60,48V92a12,12,0,0,0,24,0V52H204V172H164a12,12,0,0,0,0,24h44a20,20,0,0,0,20-20V48A20,20,0,0,0,208,28Z"/></svg>
